X: 4242
T: ROAD TO SLIGO
%R: slip-jig
B: James Kerr "Merry Melodies" v.4 p.26 #242
Z: 2016 John Chambers <jc:trillian.mit.edu>
M: 9/8
L: 1/8
K: Gm	% and Bb
|:\
FGF D2E F3 | GAG E2F GAB |\
FGF D2E F3 | c2c c2B AGF ::\
Bcd dfc d3 | Bcd dfd cAF |
Bcd dfc d3 | c2c c2B AGF ::\
BcB ABA G3 | d2G G2A Bcd |\
BcB ABA G3 | g3  d2c BAG :|

%%sep 1 1 500
%%sep 1 1 500

